src/ikoner/calendar-3.svg

<?xml version="1.0" encoding="UTF-8"?>
<svg width="20px" height="20px" viewBox="0 0 20 20" version="1.1" xmlns="http://www.w3.org/2000/svg" xmlns:xlink="http://www.w3.org/1999/xlink">
    <!-- Generator: Sketch 55.2 (78181) - https://sketchapp.com -->
    <title>Outline/22-time/calendar-3</title>
    <desc>Created with Sketch.</desc>
    <g id="↳-1" stroke="none" stroke-width="1" fill="none" fill-rule="evenodd">
        <g id="Kurs-detaljside" transform="translate(-918.000000, -425.000000)" fill="#3E3832">
            <g id="Group-6" transform="translate(918.000000, 424.000000)">
                <g id="tidspunkt">
                    <g id="Outline/22-time/calendar-3" transform="translate(0.000000, 1.000000)">
                        <path d="M19.5833334,1.66666667 L16.6666667,1.66666667 L16.6666667,0.416666668 C16.6666667,0.186666667 16.4800001,3.80140364e-13 16.2500001,3.80140364e-13 L13.7500001,3.80140364e-13 C13.5200001,3.80140364e-13 13.3333334,0.186666667 13.3333334,0.416666668 L13.3333334,1.66666667 L6.66666669,1.66666667 L6.66666669,0.416666668 C6.66666669,0.186666667 6.48000003,3.80140364e-13 6.25000003,3.80140364e-13 L3.75000002,3.80140364e-13 C3.52000001,3.80140364e-13 3.33333335,0.186666667 3.33333335,0.416666668 L3.33333335,1.66666667 L0.416666668,1.66666667 C0.186666667,1.66666667 -3.55271368e-15,1.85333334 -3.55271368e-15,2.08333334 L-3.55271368e-15,19.5833334 C-3.55271368e-15,19.8133334 0.186666667,20 0.416666668,20 L19.5833334,20 C19.8133334,20 20,19.8133334 20,19.5833334 L20,2.08333334 C20,1.85333334 19.8133334,1.66666667 19.5833334,1.66666667 Z M14.1666667,0.833333337 L15.8333334,0.833333337 L15.8333334,3.33333334 L14.1666667,3.33333334 L14.1666667,0.833333337 Z M4.16666668,0.833333337 L5.83333336,0.833333337 L5.83333336,3.33333334 L4.16666668,3.33333334 L4.16666668,0.833333337 Z M3.33333334,2.50000001 L3.33333334,3.75000002 C3.33333334,3.98000002 3.52000001,4.16666668 3.75000002,4.16666668 L6.25000003,4.16666668 C6.48000003,4.16666668 6.66666669,3.98000002 6.66666669,3.75000002 L6.66666669,2.50000001 L13.3333333,2.50000001 L13.3333333,3.75000002 C13.3333333,3.98000002 13.5200001,4.16666668 13.7500001,4.16666668 L16.2500001,4.16666668 C16.4800001,4.16666668 16.6666667,3.98000002 16.6666667,3.75000002 L16.6666667,2.50000001 L19.1666667,2.50000001 L19.1666667,5.83333336 L0.833333337,5.83333336 L0.833333337,2.50000001 L3.33333334,2.50000001 Z M0.833333337,19.1666667 L0.833333337,6.66666669 L19.1666667,6.66666669 L19.1666667,19.1666667 L0.833333337,19.1666667 Z" id="Combined-Shape"></path>
                    </g>
                </g>
            </g>
        </g>
    </g>
</svg>

<svg width="20" height="20" 
    xmlns="http://www.w3.org/2000/svg">
    <path d="M19.6 1.7h-3V.4c0-.2-.1-.4-.3-.4h-2.5c-.3 0-.5.2-.5.4v1.3H6.7V.4c0-.2-.2-.4-.4-.4H3.8c-.3 0-.5.2-.5.4v1.3H.4c-.2 0-.4.2-.4.4v17.5c0 .2.2.4.4.4h19.2c.2 0 .4-.2.4-.4V2c0-.2-.2-.4-.4-.4zM14.2.8h1.6v2.5h-1.6V.8zm-10 0h1.6v2.5H4.2V.8zm-.9 1.7v1.3c0 .2.2.4.5.4h2.5c.2 0 .4-.2.4-.4V2.5h6.6v1.3c0 .2.2.4.5.4h2.5c.2 0 .4-.2.4-.4V2.5h2.5v3.3H.8V2.5h2.5zM.8 19.2V6.7h18.4v12.5H.8z" fill="#3E3832" fill-rule="evenodd"/>
</svg>
